X:13
T:Polska ur Sven Donats notbok
T:(MA5-13)
R:Polska
O:Småland
B:Sven Donats notbok
B:http://www.smus.se/earkiv/fmk/browselarge.php?lang=sw&katalogid=Ma+5&bildnr=00015
S:Efter Sven Donat
Z:Till abc Jonas Brunskog
M:3/4
L:1/8
K:D
|:A2 d>c d>e|fegf d>e|fgaf d>f|e2 cc AF|
A2 d>c d>e|fegf d>e|fgaf d>f|e>c d2 d2:|
|:f/e/f/g/ afce|fe/f/ gg/e/ c2| f/e/f/g/ afce|fe/f/ gg/e/ c2|
A2  d>c d>e|fe/f/ gf d>e| f/e/f/g/ ag/f/ fe/d/|f/e/d/c/ d2 d2:|

